X: 33925
T: Red Tom Of The Hills
R: reel
M: 4/4
K: Gdorian
D~G3 DEFD|GABc defa|gfdc B/c/d BG|A/B/c AF DEFD|
G2 dG cAFA|GABc defa|gfdc ~B3d|1 cAFA G3 F:|2 cA^FA G2 Bd||
g2 =bg dgbg|g/a/g =bg dBGA|[A2f2] af cfaf|f/g/f af dc=Bc|
d~g3 =b~g3|=BABd g^fde|f3a g^fga|1 fdcA G2 Bd:|2 fdcA G3 F||

